src/lib/packages/icons/src/assets/filled/comment-edit.svg

<svg width="24" height="24" viewBox="0 0 24 24" fill="none" xmlns="http://www.w3.org/2000/svg">
<path d="M12 4C7.03 4 3 6.99998 3 12.001C3 14.121 3.72995 15.892 4.94995 17.212C4.79995 18.172 4.25992 19.272 3.16992 20.152C2.83992 20.432 3.02996 20.9819 3.45996 20.9919C4.87996 21.0419 7.06991 20.852 8.40991 19.422C9.50991 19.802 10.72 20.002 12 20.002C16.97 20.002 21 17.001 21 12.001C21 6.99998 16.97 4 12 4ZM10.22 16H8V13.78L11.98 9.78003L14.22 12.02L10.22 16ZM15.74 10.51L14.9199 11.3199L12.6799 9.07996L13.49 8.26001C13.84 7.91001 14.4 7.91001 14.75 8.26001L15.74 9.25C16.09 9.6 16.09 10.16 15.74 10.51Z" fill="currentColor"/>
</svg>

<svg xmlns="http://www.w3.org/2000/svg" width="24" height="24" fill="none"><path fill="currentColor" d="M12 4c-4.97 0-9 3-9 8.001 0 2.12.73 3.891 1.95 5.211-.15.96-.69 2.06-1.78 2.94-.33.28-.14.83.29.84 1.42.05 3.61-.14 4.95-1.57 1.1.38 2.31.58 3.59.58 4.97 0 9-3.001 9-8.001C21 7 16.97 4 12 4Zm-1.78 12H8v-2.22l3.98-4 2.24 2.24-4 3.98Zm5.52-5.49-.82.81-2.24-2.24.81-.82c.35-.35.91-.35 1.26 0l.99.99c.35.35.35.91 0 1.26Z"/></svg>
